X: 21986
T: Kitty Of Oulart
R: jig
M: 6/8
K: Dmajor
|:f/g/|"D"a2d fed|a2d fed|"G"b2g "D"a2f|"E7"efe "A7"efg|
"D"a2d fed|a2d fed|"G"b2g "D"a2f|"A7"efe "D"d2:|
|:A|"D"dcd "A"efg|"D"fed "A"cBA|"G"BdB "D"AFD|"E7"EFE "A7"E2A|
"D"dcd "A"efg|"D"fed "A"cBA|"G"BdB "D"AFD|"A7"EFE "D"D2:|

